X: 52
T:Miss Campbell
M:4/4
L:1/8
C:Adam Rennie
R:Reel
K:G
D2|"G"G2G2 BAGB|"G"d2d2 dcBc|"G"d2g2"D"f2e2|"G"d4 d2 D2|"D"D2 D2 FEDF|"D
"A2A2 AGFG|!"D"A2c2A2F2|1 "G"G4 G2:|2 "G"G4 GABc||"G"d3B G2G2|"d"c3A F2F
2|"G"d3B "Em" G2G2|
"Am"A4 "D7"A2 D2|!"G"d3B G2G2|"d"c3A F2F2|"Em"G2B2"D"A3G|1 "G"GDEF GABc:
|2 "G"G4 z2||
